dist/assets/img/social/odnoklasniki.svg

<svg width="27" height="27" viewBox="0 0 27 27" fill="none" xmlns="http://www.w3.org/2000/svg">
<g clip-path="url(#clip0)">
<path d="M5.31073 14.4909C4.62111 15.8465 5.40411 16.4945 7.19061 17.6015C8.70936 18.5397 10.8075 18.8829 12.1552 19.0201C11.6029 19.5511 14.1341 17.1166 6.84411 24.1287C5.29836 25.6104 7.78686 27.9875 9.33148 26.5374L13.5131 22.5042C15.114 24.0444 16.6485 25.5204 17.6947 26.543C19.2405 27.9987 21.7279 25.6419 20.199 24.1344C20.0842 24.0252 14.5324 18.6995 14.871 19.0257C16.2356 18.8885 18.3022 18.5251 19.803 17.6071L19.8019 17.606C21.5884 16.4934 22.3714 15.8465 21.6919 14.4909C21.2812 13.7214 20.1742 13.0779 18.7005 14.1905C18.7005 14.1905 16.7104 15.7149 13.5007 15.7149C10.29 15.7149 8.30098 14.1905 8.30098 14.1905C6.82836 13.0722 5.71686 13.7214 5.31073 14.4909Z" fill="#656565"/>
<path d="M13.499 13.6597C17.4118 13.6597 20.6068 10.602 20.6068 6.83775C20.6068 3.05775 17.4118 0 13.499 0C9.58514 0 6.39014 3.05775 6.39014 6.83775C6.39014 10.602 9.58514 13.6597 13.499 13.6597ZM13.499 3.46388C15.4216 3.46388 16.9899 4.9725 16.9899 6.83775C16.9899 8.68725 15.4216 10.1959 13.499 10.1959C11.5764 10.1959 10.0081 8.68725 10.0081 6.83775C10.007 4.97137 11.5753 3.46388 13.499 3.46388Z" fill="#656565"/>
</g>
<defs>
<clipPath id="clip0">
<rect width="27" height="27" fill="white"/>
</clipPath>
</defs>
</svg>

<svg width="27" height="27" viewBox="0 0 27 27" fill="none" xmlns="http://www.w3.org/2000/svg"><g clip-path="url(#clip0)" fill="#656565"><path d="M5.31 14.49c-.689 1.357.094 2.004 1.88 3.112 1.52.938 3.617 1.28 4.965 1.418-.552.531 1.98-1.903-5.31 5.109-1.547 1.481.942 3.858 2.486 2.408l4.182-4.033a859.254 859.254 0 014.182 4.039c1.546 1.456 4.033-.901 2.504-2.409l-5.328-5.108c1.365-.137 3.431-.5 4.932-1.419l-.001-.001c1.786-1.113 2.57-1.76 1.89-3.115-.41-.77-1.518-1.413-2.991-.3 0 0-1.99 1.524-5.2 1.524-3.211 0-5.2-1.524-5.2-1.524-1.473-1.119-2.584-.47-2.99.3z"/><path d="M13.499 13.66c3.913 0 7.108-3.058 7.108-6.822 0-3.78-3.195-6.838-7.108-6.838C9.585 0 6.39 3.058 6.39 6.838c0 3.764 3.195 6.822 7.109 6.822zm0-10.196c1.923 0 3.49 1.509 3.49 3.374 0 1.85-1.567 3.358-3.49 3.358-1.923 0-3.49-1.509-3.49-3.358-.002-1.867 1.566-3.374 3.49-3.374z"/></g><defs><clipPath id="clip0"><path fill="#fff" d="M0 0h27v27H0z"/></clipPath></defs></svg>
